X: 10813
T: Dragons' Blood
R: reel
M: 4/4
K: Gmajor
|:DBBA B3 D-|DBBA Bd e2-|eBBA Bdge|dB A/B/c BGEG|
DBBA B3 D-|DBBA Bd e2-|eBBA Bdge|1 dBAB G3 E:|
[2 dBAB G3 g-||gfed ^cdeg|fBBA B3 B|cdec BcdB|cBAG FAz g-|
gfed ^cdeg|fBBA B3 B|cdec BcdB|c/B/A FD G3 g-|
gfed ^cdeg|fBBA B3 B|cdec BcdB|cBAG FDGA|
BDDB cDDc|BcdB A3 B|cdec Bgge|dBAB G4||

